X: 10533
T: Doonagore, The
R: reel
M: 4/4
K: Gmajor
|:DG G2 FGAc|BG G2 ABcA|d2 de fdef|dcAF GFEF|
DG G2 FGAc|BG G2 ABcA|d^cde fdef|1 dcAF G3F:|2 dcAF G3d||
|:g3e fd d2|fdge fd d2|g3e fdd^c|defd g3f|
gbag fdd=c|BG G2 ABcA|d2 cA BG G2|(3Bcd cA G3F:|

